// 金 11  7 2025 17:52
Avatar.addReceiver(NetAddr.localAddr);

// Shortcuts
Avatar.addLocalGodot;
Avatar.deleteLocalGodot;
Avatar.addLocalSC;
Avatar.deleteLocalSC;
//:

Avatar.play;
Avatar.addFilter(\hipx, { 2 });

//Select a session per gui and load it:
Avatar.sessionGui;